X:301
T:Austrian
S:Bruce & Emmett's Drummers and Fifers Guide (1862), p. 30
M:2/4
L:1/16
Q:Allegro
K:G
%%MIDI program 72
%%MIDI transpose 8
%%MIDI ratio 3 1
D2|G>AB>c d>ef>d|g2g2 f4|e>fe>^c d3B|c>ec>A B>dB>G|A>cA>F G>FE>D|
G>AB>c d>ef>d|g2g2 f4|e>fe^c d3B|c>ec>A B>dB>G|A>cA>F G2|
|:e2|d>BG>B A>FD>c|d>BG>B A2e2|d>BG>B A>FD>c|d>BG>B A2B>A|
G>AB>c d>ef>d|g2g2 f4|e>fd>^c d3B|c>ec>A B>dB>G|A>cA>F G4:||
